X:1
T:Title
%%score { ( 1 3 4 ) | ( 2 5 6 ) }
L:1/8
Q:1/4=90
M:3/4
K:G
V:1 bass nm="Grand Piano"
V:3 bass 
V:4 bass 
V:2 bass 
V:5 bass 
V:6 bass 
V:1
 .[B,D]2 .[A,CD]2 .[G,B,D]2 | [F,A,D]3 [G,B,D][K:treble] [A,CD]2 | [B,DG]2 [DF]2 [^CE]2 | F6 | %4
w: Carey~Bonner * *||||
 B2 A2 G2 | G3 F G2 | [Fc]2 [GB]2 [DA]2 | [DB]6 | z2 z2 d2 | e4 z2 | [CEA]2 B2 c2 | d4 z2 | %12
w: ||||||||
 .[Ec]2 .[DGB]2 [CFA]2[Q:1/4=89][Q:1/4=87][Q:1/4=86][Q:1/4=85] | %13
w: |
[M:7/4] [B,G]6 z2 z2 z4[Q:1/4=83][Q:1/4=82][Q:1/4=81][Q:1/4=79][Q:1/4=78][Q:1/4=77][Q:1/4=75][Q:1/4=74][Q:1/4=73][Q:1/4=71] | %14
w: |
[M:3/4] [EG]6[Q:1/4=70][Q:1/4=69] | [B,DG]6 |] %16
w: ||
V:2
 .G,,2 .G,,2 .G,,2 | D,3 D, D,2 | G,,2 [A,,A,]2 [A,,A,]2 | [D,A,D]6 | [G,D]2 [G,A,D]2 [G,B,D]2 | %5
 [A,CD]3 [A,CD] [B,D]2 | [D,A,]2 [E,G,]2 [F,C]2 | [G,B,]6 | [=F,D]2 [E,C]2 [D,B,]2 | z2 ^G,2 z2 | %10
 A,,2 [E,^G,E]2 [A,E]2 | [F,A,D]2 [D,D]2 E,2 | .A,,2 .D,2 D,2 |[M:7/4] G,,6 z2 z2 z4 | %14
[M:3/4] z2 G,2 A,2 | G,,6 |] %16
V:3
 x6 | x4[K:treble] x2 | x6 | x6 | x6 | x6 | x6 | x6 | [GB]2 [Gc]2 G=F | E2 z d [Ec]2 | x6 | %11
 z2 z B [B,G]2 | x6 |[M:7/4] x14 |[M:3/4] C2 z2 z2 | x6 |] %16
V:4
 x6 | x4[K:treble] x2 | x6 | x6 | x6 | x6 | x6 | x6 | x6 | z2 =F2 z2 | x6 | z2 F2 z2 | x6 | %13
[M:7/4] x14 |[M:3/4] x6 | x6 |] %16
V:5
 x6 | x6 | x6 | x6 | x6 | x6 | x6 | x6 | x6 | C2 z C, [C,A,]2 | x6 | x6 | x6 |[M:7/4] x14 | %14
[M:3/4] C,6 | x6 |] %16
V:6
 x6 | x6 | x6 | x6 | x6 | x6 | x6 | x6 | x6 | C,4 z2 | x6 | x6 | x6 |[M:7/4] x14 |[M:3/4] x6 | %15
 x6 |] %16

